!!!!SEGMENT: pl-cz--ii-121--008_klakowski--missa-in-dis-agnus-dei.krn
!!!cenid: 18xx:885
!!!COM: Klakowski
!!!COM-rismID: pe30098487
!!!CDT: ~1800-~1899
!!!CNT:
!!!OPR: Missa in Dis
!!!OTL: Agnus Dei
!!!OMV: 008
!!!PDT:
!!!AGN: Sacred; Mass
!!!SMS-siglum: PL-CZ
!!!SMS-shelfmark: II-121
!!!SMS-shelfwork: 001-008 M
!!!SMS-variant:
!!!SMS-altvar:
!!!NIFC-rismSourceID: 300000590
!!!NIFC-islandoraID: pl-cz:32114
!!!URL-pdf-islandora: https://repozytorium.nifc.pl/islandora/object/pl-cz%3A32114/datastream/PDF/view
!!!URL-scan:
!!!ONB-nifc: UWAGA: części Mszy: Kyrie, Gloria, Credo, Et incarnatus, Et resurrexit, Sanctus, Benedictus, Agnus Dei, Dona nobis
!!!AIN: 1 alto 2 clars 2 cor 1 empty 1 organ 1 tenor 1 viola 2 violn 1 vox
!!!key:
**kern	**fba	**dynam	**kern	**dynam	**kern	**dynam	**kern	**dynam	**kern	**text	**kern	**text	**kern	**text	**kern	**text	**kern	**dynam	**kern	**dynam	**kern	**dynam	**kern	**dynam
*part12	*part12	*part12	*part11	*part11	*part10	*part10	*part9	*part9	*part8	*part8	*part7	*part7	*part6	*part6	*part5	*part5	*part4	*part4	*part3	*part3	*part2	*part2	*part1	*part1
*staff12	*	*	*staff11	*	*staff10	*	*staff9	*	*staff8	*staff8	*staff7	*staff7	*staff6	*staff6	*staff5	*staff5	*staff4	*	*staff3	*	*staff2	*	*staff1	*
*Iorgan	*	*	*Iviola	*	*Ivioln	*	*Ivioln	*	*Iempty	*	*Itenor	*	*Ialto	*	*Ivox	*	*Icor	*	*Icor	*	*Iclars	*	*Iclars	*
*I"Organo	*	*	*I"Alto Viola	*	*I"Violino Secondo	*	*I"Violino Primo.	*	*I"Baſso	*	*I"Tenore	*	*I"Alto	*	*I"Canto	*	*I"Corno Secundo in Dis	*	*I"Corno Primo in Es	*	*I"Clarinetto Secondo in B.	*	*I"Clarinetto Primo in B	*
*I'org	*	*	*I'a-vla	*	*I'vl 2	*	*I'vl 1	*	*I'B	*	*I'T	*	*I'A	*	*I'S	*	*I'cor 2 in Dis	*	*I'cor 1 in Es	*	*I'cl 2 in B	*	*I'cl 1 in B	*
*ICklav	*	*	*ICstr	*	*ICstr	*	*ICstr	*	*ICvox	*	*ICvox	*	*ICvox	*	*ICvox	*	*ICbras	*	*ICbras	*	*ICww	*	*ICww	*
*clefF4	*	*	*clefC3	*	*clefG2	*	*clefG2	*	*clefF4	*	*clefC4	*	*clefC3	*	*clefC1	*	*clefG2	*	*clefG2	*	*clefG2	*	*clefG2	*
*	*	*	*	*	*	*	*	*	*	*	*	*	*	*	*	*	*ITrd5c9	*	*ITrd5c9	*	*ITrd1c2	*	*ITrd1c2	*
*k[b-e-a-]	*	*	*k[b-e-a-]	*	*k[b-e-a-]	*	*k[b-e-a-]	*	*k[b-e-a-]	*	*k[b-e-a-]	*	*k[b-e-a-]	*	*k[b-e-a-]	*	*k[b-e-a-]	*	*k[b-e-a-]	*	*k[b-e-a-]	*	*k[b-e-a-]	*
*c:	*	*	*c:	*	*c:	*	*c:	*	*c:	*	*c:	*	*c:	*	*c:	*	*c:	*	*c:	*	*c:	*	*c:	*
*M3/4	*	*	*M3/4	*	*M3/4	*	*M3/4	*	*M3/4	*	*M3/4	*	*M3/4	*	*M3/4	*	*M3/4	*	*M3/4	*	*M3/4	*	*M3/4	*
*	*	*	*	*	*	*	*	*below	*	*	*	*	*	*	*	*	*	*	*	*	*	*	*	*
=1	=1	=1	=1	=1	=1	=1	=1	=1	=1	=1	=1	=1	=1	=1	=1	=1	=1	=1	=1	=1	=1	=1	=1	=1
!	!	!	!	!	!	!	!	!	!	!	!	!	!LO:TX:b:t=1	!	!	!	!	!	!	!	!	!	!	!
!LO:TX:a:rj:i:t=Solo	!	!	!	!	!	!	!	!	!	!	!LO:TX:a:rj:t=9	!	!LO:TX:a:rj:t=1	!	!	!	!	!	!LO:TX:a:rj:Bi:t=Lar	!	!	!	!LO:TX:a:rj:Bi:t=Largo	!
!LO:TX::a:rj:Bi:t=Largo	!	!	!LO:TX:a:rj:Bi:t=Largo	!	!LO:TX:a:rj:Bi:t=Largo	!LO:DY:rj	!LO:TX:a:rj:Bi:t=Largo	!LO:DY:a	!LO:TX:a:Bi:t=Largo	!	!LO:TX:a:rj:Bi:t=Largo	!	!LO:TX:a:rj:Bi:t=Largo	!	!LO:TX:a:rj:Bi:t=Largo	!	!	!	!LO:TX:t=P:problem=partia zapisana jako in D. obok ołówkiem dopisane Es	!	!LO:TX:a:rj:Bi:t=Largo	!	!LO:TX:a:t=P:problem=all\right	!
4C/	.	.	4G/	f	4cc/ 4e-/ 4G/	f	4cc/ 4e-/ 4G/	f	0.r	.	0.r	.	2.r	.	2.r	.	4E-/	f	4e-\	f	4cc\	f	4ee-\	f
4C/	.	.	4G/	.	4cc/ 4e-/ 4G/	.	4cc/ 4e-/ 4G/	.	.	.	.	.	.	.	.	.	4E-/	.	4e-\	.	4cc\	.	4ee-\	.
4r	.	.	4r	.	4r	.	4r	.	.	.	.	.	.	.	.	.	4r	.	4r	.	4r	.	4r	.
=2	=2	=2	=2	=2	=2	=2	=2	=2	=2	=2	=2	=2	=2	=2	=2	=2	=2	=2	=2	=2	=2	=2	=2	=2
*2\right	*	*	*	*	*	*	*	*	*	*	*	*	*2\right	*	*2\right	*	*	*	*	*	*	*	*	*
*	*	*	*	*	*tremolo	*	*tremolo	*	*	*	*	*	*	*	*	*	*	*	*	*	*	*	*	*
!	!	!	!LO:TX:a:rj:t=4	!	!	!LO:DY:t=p&colon;	!	!LO:DY:a	!	!	!	!	!LO:TX:a:rj:i:t=Solo	!	!LO:TX:a:rj:i:t=Solo	!	!	!	!	!	!LO:TX:a:rj:t=4	!	!	!
2.c\	5 3	.	0.r	.	8e-/L	p	8g/L	p	.	.	.	.	2cc\	Ag-	2gg\	Ag-	0.r	.	0.r	.	0.r	.	0.r	.
.	.	.	.	.	8e-/	.	8g/	.	.	.	.	.	.	.	.	.	.	.	.	.	.	.	.	.
.	.	.	.	.	8e-/	.	8g/	.	.	.	.	.	.	.	.	.	.	.	.	.	.	.	.	.
.	.	.	.	.	8e-/	.	8g/	.	.	.	.	.	.	.	.	.	.	.	.	.	.	.	.	.
.	.	.	.	.	8e-/	.	8g/	.	.	.	.	.	4cc\	-nus	4gg\	-nus	.	.	.	.	.	.	.	.
.	.	.	.	.	8e-/J	.	8g/J	.	.	.	.	.	.	.	.	.	.	.	.	.	.	.	.	.
*	*	*	*	*	*Xtremolo	*	*Xtremolo	*	*	*	*	*	*	*	*	*	*	*	*	*	*	*	*	*
=3	=3	=3	=3	=3	=3	=3	=3	=3	=3	=3	=3	=3	=3	=3	=3	=3	=3	=3	=3	=3	=3	=3	=3	=3
4Bn\	6	.	.	.	8d'/L	.	8f'/L	.	.	.	.	.	(4dd\	De-	(4ff\	De-	.	.	.	.	.	.	.	.
.	.	.	.	.	8d'/	.	8f'/	.	.	.	.	.	.	.	.	.	.	.	.	.	.	.	.	.
4r	.	.	.	.	8c'/	.	8e-'/	.	.	.	.	.	4cc\)	.	4ee-\)	.	.	.	.	.	.	.	.	.
.	.	.	.	.	8c'/	.	8e-'/	.	.	.	.	.	.	.	.	.	.	.	.	.	.	.	.	.
4r	.	.	.	.	8Bn'/	.	8d'/	.	.	.	.	.	4bn\	-i	4dd'\	-i	.	.	.	.	.	.	.	.
.	.	.	.	.	8B'/J	.	8d'/J	.	.	.	.	.	.	.	.	.	.	.	.	.	.	.	.	.
=4	=4	=4	=4	=4	=4	=4	=4	=4	=4	=4	=4	=4	=4	=4	=4	=4	=4	=4	=4	=4	=4	=4	=4	=4
*	*	*	*	*	*	*	*tremolo	*	*	*	*	*	*	*ij	*	*	*	*	*	*	*	*	*	*
2.Bn\	-7	.	.	.	8f'/L	.	8a-/L	.	.	.	.	.	2dd\	Ag-	2aa-\	Ag-	.	.	.	.	.	.	.	.
.	.	.	.	.	8f'/	.	8a-/	.	.	.	.	.	.	.	.	.	.	.	.	.	.	.	.	.
.	.	.	.	.	8f'/	.	8a-/	.	.	.	.	.	.	.	.	.	.	.	.	.	.	.	.	.
.	.	.	.	.	8f'/	.	8a-/	.	.	.	.	.	.	.	.	.	.	.	.	.	.	.	.	.
.	.	.	.	.	8f'/	.	8a-/	.	.	.	.	.	4dd\	-nus	4aa-\	-nus	.	.	.	.	.	.	.	.
.	.	.	.	.	8f'/J	.	8a-/J	.	.	.	.	.	.	.	.	.	.	.	.	.	.	.	.	.
*	*	*	*	*	*	*	*Xtremolo	*	*	*	*	*	*	*	*	*	*	*	*	*	*	*	*	*
=5	=5	=5	=5	=5	=5	=5	=5	=5	=5	=5	=5	=5	=5	=5	=5	=5	=5	=5	=5	=5	=5	=5	=5	=5
4c\	-3	.	.	.	8e-'/L	.	8g'/L	.	0.r	.	0.r	.	(4ee-\	De-	(4gg\	De-	.	.	.	.	.	.	.	.
.	.	.	.	.	8e-'/	.	8g'/	.	.	.	.	.	.	.	.	.	.	.	.	.	.	.	.	.
4r	.	.	.	.	8d'/	.	8f'/	.	.	.	.	.	4dd\)	.	4ff\)	.	.	.	.	.	.	.	.	.
.	.	.	.	.	8d'/	.	8f'/	.	.	.	.	.	.	.	.	.	.	.	.	.	.	.	.	.
*clefC1	*	*	*	*	*	*	*	*	*	*	*	*	*	*	*	*	*	*	*	*	*	*	*	*
4f#X/	7 5	.	.	.	8c'/	.	8e-'/	.	.	.	.	.	4cc\	-i	4ee-'\	-i	.	.	.	.	.	.	.	.
*	*	*	*	*	*	*	*	*	*	*	*	*	*	*Xij	*	*	*	*	*	*	*	*	*	*
.	.	.	.	.	8c'/J	.	8e-'/J	.	.	.	.	.	.	.	.	.	.	.	.	.	.	.	.	.
!	!	!	!	!	!LO:LB:g=original	!	!	!	!	!	!	!	!	!	!	!	!	!	!	!	!	!	!	!
=6	=6	=6	=6	=6	=6	=6	=6	=6	=6	=6	=6	=6	=6	=6	=6	=6	=6	=6	=6	=6	=6	=6	=6	=6
4g\	5 #	.	2.G/	p	8Bn'/L	.	8d'/L	.	.	.	.	.	4bn\	qui	4dd\	qui	0.r	.	0.r	.	4bX\	.	4dd\	.
.	.	.	.	.	8B'/	.	8d'/	.	.	.	.	.	.	.	.	.	.	.	.	.	.	.	.	.
4g\	7 5	.	.	.	8d'/	.	8f'/	.	.	.	.	.	4dd\	tol-	4ff\	tol-	.	.	.	.	4dd\	.	4ff\	p
.	.	.	.	.	8d'/	.	8f'/	.	.	.	.	.	.	.	.	.	.	.	.	.	.	.	.	.
4g\	6 4	.	.	.	8c'/	.	8e-'/	.	.	.	.	.	4cc\	-liſ	4ee-\	-liſ	.	.	.	.	4cc\	.	4ee-\	.
.	.	.	.	.	8c'/J	.	8e-'/J	.	.	.	.	.	.	.	.	.	.	.	.	.	.	.	.	.
!	!	!	!	!	!	!	!	!	!	!	!	!	!LO:LB:g=original	!	!LO:LB:g=original	!	!	!	!	!	!	!	!	!
=7	=7	=7	=7	=7	=7	=7	=7	=7	=7	=7	=7	=7	=7	=7	=7	=7	=7	=7	=7	=7	=7	=7	=7	=7
4g\	5 n	.	2.G/	.	8Bn/L	.	8d'/L	.	.	.	.	.	4bn\	pec-	4dd\	pec-	.	.	.	.	4bX\	.	4dd\	.
.	.	.	.	.	8B/	.	8d'/	.	.	.	.	.	.	.	.	.	.	.	.	.	.	.	.	.
4g\	7 5	.	.	.	8d/	.	8f'/	.	.	.	.	.	4dd\	-ca-	4ff\	-ca-	.	.	.	.	4dd\	.	4ff\	.
.	.	.	.	.	8d/	.	8f'/	.	.	.	.	.	.	.	.	.	.	.	.	.	.	.	.	.
4g\	6 4	.	.	.	8c/	.	8e-'/	.	.	.	.	.	4cc\	-ta	4ee-\	-ta	.	.	.	.	4cc\	.	4ee-\	.
.	.	.	.	.	8c/J	.	8e-'/J	.	.	.	.	.	.	.	.	.	.	.	.	.	.	.	.	.
=8	=8	=8	=8	=8	=8	=8	=8	=8	=8	=8	=8	=8	=8	=8	=8	=8	=8	=8	=8	=8	=8	=8	=8	=8
4fn\	6	.	4f\	.	8d/L	.	8a-'/L	.	.	.	.	.	4dd\	mun-	4aa-\	mun-	.	.	.	.	4ff\	.	4aa-\	.
.	.	.	.	.	8d/	.	8a-'/	.	.	.	.	.	.	.	.	.	.	.	.	.	.	.	.	.
4g\	6 4	.	4g\	.	8e-/	.	8g'/	.	.	.	.	.	4ee-\	.	4gg\	.	.	.	.	.	4ee-\	.	4gg\	.
.	.	.	.	.	8e-/	.	8g'/	.	.	.	.	.	.	.	.	.	.	.	.	.	.	.	.	.
*clefF4	*	*	*	*	*	*	*	*	*	*	*	*	*	*	*	*	*	*	*	*	*	*	*	*
4G\	5 n	.	4G/	.	8d/	.	8Bn'/	.	.	.	.	.	4dd\	.	4ff\	.	.	.	.	.	4dd\	.	4ff\	.
.	.	.	.	.	8d/J	.	8B'/J	.	.	.	.	.	.	.	.	.	.	.	.	.	.	.	.	.
!LO:LB:g=original	!	!	!	!	!	!	!	!	!	!	!	!	!	!	!	!	!	!	!	!	!	!	!	!
=9	=9	=9	=9	=9	=9	=9	=9	=9	=9	=9	=9	=9	=9	=9	=9	=9	=9	=9	=9	=9	=9	=9	=9	=9
4c\	.	.	4c/	.	4.e-/	.	4.c/	.	2.r	.	2.r	.	4cc\	-di	4ee-\	-di	.	.	.	.	4cc\	.	4ee-\	.
4C/	.	.	4C/	.	.	.	.	.	.	.	.	.	4r	.	4r	.	.	.	.	.	4r	.	4r	.
.	.	.	.	.	8r	.	(16cc\LL	.	.	.	.	.	.	.	.	.	.	.	.	.	.	.	.	.
.	.	.	.	.	.	.	16bn\JJ)	.	.	.	.	.	.	.	.	.	.	.	.	.	.	.	.	.
4r	.	.	4r	.	4r	.	(16b-X/LL	.	.	.	.	.	4r	.	4r	.	.	.	.	.	4r	.	4r	.
.	.	.	.	.	.	.	16an/)	.	.	.	.	.	.	.	.	.	.	.	.	.	.	.	.	.
.	.	.	.	.	.	.	(16a-X/	.	.	.	.	.	.	.	.	.	.	.	.	.	.	.	.	.
.	.	.	.	.	.	.	16f/JJ)	.	.	.	.	.	.	.	.	.	.	.	.	.	.	.	.	.
!	!	!	!	!	!	!	!LO:LB:g=original	!	!	!	!	!	!	!	!	!	!	!	!	!	!LO:LB:g=original	!	!LO:LB:g=original	!
=10	=10	=10	=10	=10	=10	=10	=10	=10	=10	=10	=10	=10	=10	=10	=10	=10	=10	=10	=10	=10	=10	=10	=10	=10
*	*	*	*	*	*	*	*	*	*2\right	*	*	*	*	*	*	*	*	*	*2\right	*	*2\right	*	*2\right	*
!LO:TX::a:rj:i:t=Tutti	!	!	!	!	!LO:TX:a:rj:i:t=Tutti	!LO:DY:rj	!	!LO:DY:b:rj	!	!	!	!	!	!	!	!	!	!LO:DY:rj	!LO:TX:a:rj:i:t=Tutti	!	!LO:TX:a:rj:i:t=Tutti	!	!	!
4E-\	5 3	.	8e-\	f	8B-X/	ff	8e-/L	f	2E-\	mi-	2G/	mi-	2b-X\	mi-	2ee-\	mi-	2G/	f	2e-\	f	2b-\	f	2ee-\	f
.	.	.	4e-\	.	4B-/	.	(16e-/L	.	.	.	.	.	.	.	.	.	.	.	.	.	.	.	.	.
.	.	.	.	.	.	.	16g/JJ)	.	.	.	.	.	.	.	.	.	.	.	.	.	.	.	.	.
4E-\	.	.	.	.	.	.	(16g/LL	.	.	.	.	.	.	.	.	.	.	.	.	.	.	.	.	.
.	.	.	.	.	.	.	16b-/)	.	.	.	.	.	.	.	.	.	.	.	.	.	.	.	.	.
.	.	.	4e-\	.	4B-/	.	(16b-/	.	.	.	.	.	.	.	.	.	.	.	.	.	.	.	.	.
.	.	.	.	.	.	.	16ee-/JJ)	.	.	.	.	.	.	.	.	.	.	.	.	.	.	.	.	.
4E-\	.	.	.	.	.	.	(16ee-\LL	.	4E-\	-se-	4G/	-se-	4b-\	-se-	4ee-\	-se-	4e-\	.	4g\	.	4b-\	.	4ee-\	.
.	.	.	.	.	.	.	16gg\)	.	.	.	.	.	.	.	.	.	.	.	.	.	.	.	.	.
.	.	.	8e-\	.	8B-/	.	(16gg\	.	.	.	.	.	.	.	.	.	.	.	.	.	.	.	.	.
.	.	.	.	.	.	.	16bb-\JJ)	.	.	.	.	.	.	.	.	.	.	.	.	.	.	.	.	.
!	!	!	!LO:LB:g=original	!	!	!	!	!	!	!	!	!	!	!	!	!	!	!	!	!	!	!	!	!
=11	=11	=11	=11	=11	=11	=11	=11	=11	=11	=11	=11	=11	=11	=11	=11	=11	=11	=11	=11	=11	=11	=11	=11	=11
4D\	6 5	.	8f\	.	8B-/	.	(16bb-\LL	.	2D\	-re-	2A-/	-re-	2b-\	-re-	2ff\	-re-	2.B-/	.	2.f\	.	2.b-\	.	2.ff\	.
.	.	.	.	.	.	.	16aa-\)	.	.	.	.	.	.	.	.	.	.	.	.	.	.	.	.	.
.	.	.	4f\	.	4f/ 4B-/	.	(16aa-\	.	.	.	.	.	.	.	.	.	.	.	.	.	.	.	.	.
.	.	.	.	.	.	.	16ff\JJ)	.	.	.	.	.	.	.	.	.	.	.	.	.	.	.	.	.
4D\	.	.	.	.	.	.	(16ff\LL	.	.	.	.	.	.	.	.	.	.	.	.	.	.	.	.	.
.	.	.	.	.	.	.	16dd\)	.	.	.	.	.	.	.	.	.	.	.	.	.	.	.	.	.
.	.	.	4f\	.	4f/ 4B-/	.	(16dd\	.	.	.	.	.	.	.	.	.	.	.	.	.	.	.	.	.
.	.	.	.	.	.	.	16b-\JJ)	.	.	.	.	.	.	.	.	.	.	.	.	.	.	.	.	.
4D\	.	.	.	.	.	.	(16b-\LL	.	4D\	-re	4A-/	-re	4b-\	-re	4ff\	-re	.	.	.	.	.	.	.	.
.	.	.	.	.	.	.	16a-\)	.	.	.	.	.	.	.	.	.	.	.	.	.	.	.	.	.
.	.	.	8f\	.	8f/ 8B-/	.	(16a-\	.	.	.	.	.	.	.	.	.	.	.	.	.	.	.	.	.
.	.	.	.	.	.	.	16f\JJ)	.	.	.	.	.	.	.	.	.	.	.	.	.	.	.	.	.
=12	=12	=12	=12	=12	=12	=12	=12	=12	=12	=12	=12	=12	=12	=12	=12	=12	=12	=12	=12	=12	=12	=12	=12	=12
*	*	*	*	*	*	*	*	*	*	*ij	*	*ij	*	*ij	*	*ij	*	*	*	*	*	*	*	*
4E-\	.	.	8e-\	.	8g/ 8B-/	.	(16f/LL	.	2E-\	mi-	2G/	mi-	2b-\	mi-	2ee-\	mi-	2G/	.	2e-\	.	2b-\	.	2ee-\	.
.	.	.	.	.	.	.	16e-/)	.	.	.	.	.	.	.	.	.	.	.	.	.	.	.	.	.
.	.	.	4e-\	.	4g/ 4B-/	.	(16e-/	.	.	.	.	.	.	.	.	.	.	.	.	.	.	.	.	.
.	.	.	.	.	.	.	16g/JJ)	.	.	.	.	.	.	.	.	.	.	.	.	.	.	.	.	.
4E-\	.	.	.	.	.	.	(16g/LL	.	.	.	.	.	.	.	.	.	.	.	.	.	.	.	.	.
.	.	.	.	.	.	.	16b-/)	.	.	.	.	.	.	.	.	.	.	.	.	.	.	.	.	.
.	.	.	4e-\	.	4g/ 4B-/	.	(16b-/	.	.	.	.	.	.	.	.	.	.	.	.	.	.	.	.	.
.	.	.	.	.	.	.	16ee-/JJ)	.	.	.	.	.	.	.	.	.	.	.	.	.	.	.	.	.
4E-\	.	.	.	.	.	.	(16ee-\LL	.	4E-\	-se-	4G/	-se-	4b-\	-se-	4ee-\	-se-	4e-\	.	4g\	.	4b-\	.	4ee-\	.
.	.	.	.	.	.	.	16gg\)	.	.	.	.	.	.	.	.	.	.	.	.	.	.	.	.	.
.	.	.	8e-\	.	8g/ 8B-/	.	(16gg\	.	.	.	.	.	.	.	.	.	.	.	.	.	.	.	.	.
.	.	.	.	.	.	.	16bb-\JJ)	.	.	.	.	.	.	.	.	.	.	.	.	.	.	.	.	.
!	!	!	!	!	!LO:LB:g=original	!	!	!	!	!	!	!	!	!	!	!	!LO:LB:g=original	!	!	!	!	!	!	!
=13	=13	=13	=13	=13	=13	=13	=13	=13	=13	=13	=13	=13	=13	=13	=13	=13	=13	=13	=13	=13	=13	=13	=13	=13
4D\	6	.	8f\	.	8f/ 8B-/	.	(16bb-\LL	.	2D\	-re-	2A-/	-re-	2b-\	-re-	2ff\	-re-	2B-/	.	2.f\	.	2.b-\	.	2.ff\	.
.	.	.	.	.	.	.	16aa-\)	.	.	.	.	.	.	.	.	.	.	.	.	.	.	.	.	.
.	.	.	4f\	.	4f/ 4B-/	.	(16aa-\	.	.	.	.	.	.	.	.	.	.	.	.	.	.	.	.	.
.	.	.	.	.	.	.	16ff\JJ)	.	.	.	.	.	.	.	.	.	.	.	.	.	.	.	.	.
4D\	.	.	.	.	.	.	(16ff\LL	.	.	.	.	.	.	.	.	.	.	.	.	.	.	.	.	.
.	.	.	.	.	.	.	16dd\)	.	.	.	.	.	.	.	.	.	.	.	.	.	.	.	.	.
.	.	.	4f\	.	4f/ 4B-/	.	(16dd\	.	.	.	.	.	.	.	.	.	.	.	.	.	.	.	.	.
.	.	.	.	.	.	.	16b-\JJ)	.	.	.	.	.	.	.	.	.	.	.	.	.	.	.	.	.
4D\	.	.	.	.	.	.	(16b-\LL	.	4D\	-re	4A-/	-re	4b-\	-re	4ff\	-re	4B-/	.	.	.	.	.	.	.
*	*	*	*	*	*	*	*	*	*	*Xij	*	*Xij	*	*Xij	*	*Xij	*	*	*	*	*	*	*	*
.	.	.	.	.	.	.	16a-\)	.	.	.	.	.	.	.	.	.	.	.	.	.	.	.	.	.
.	.	.	8f\	.	8f/ 8B-/	.	(16a-\	.	.	.	.	.	.	.	.	.	.	.	.	.	.	.	.	.
.	.	.	.	.	.	.	16f\JJ)	.	.	.	.	.	.	.	.	.	.	.	.	.	.	.	.	.
!	!	!	!	!	!	!	!	!	!	!	!	!	!LO:LB:g=original	!	!	!	!	!	!	!	!	!	!	!
=14	=14	=14	=14	=14	=14	=14	=14	=14	=14	=14	=14	=14	=14	=14	=14	=14	=14	=14	=14	=14	=14	=14	=14	=14
4E-\	.	.	8B-/	.	8g/ 8B-/	.	(16f/LL	.	2.E-\	no-	2.G/	no-	2.b-\	no-	2.ee-\	no-	2G/	.	2e-\	.	2b-\	.	2ee-\	.
.	.	.	.	.	.	.	16e-/)	.	.	.	.	.	.	.	.	.	.	.	.	.	.	.	.	.
.	.	.	4B-/	.	4g/ 4B-/	.	(16e-/	.	.	.	.	.	.	.	.	.	.	.	.	.	.	.	.	.
.	.	.	.	.	.	.	16g/JJ)	.	.	.	.	.	.	.	.	.	.	.	.	.	.	.	.	.
4E-\	.	.	.	.	.	.	(16g/LL	.	.	.	.	.	.	.	.	.	.	.	.	.	.	.	.	.
.	.	.	.	.	.	.	16b-/)	.	.	.	.	.	.	.	.	.	.	.	.	.	.	.	.	.
.	.	.	4B-/	.	4g/ 4B-/	.	(16b-/	.	.	.	.	.	.	.	.	.	.	.	.	.	.	.	.	.
.	.	.	.	.	.	.	16ee-/JJ)	.	.	.	.	.	.	.	.	.	.	.	.	.	.	.	.	.
4E-\	.	.	.	.	.	.	(16ee-/LL	.	.	.	.	.	.	.	.	.	4e-\	.	4g\	.	4ee-\	.	4gg\	.
.	.	.	.	.	.	.	16b-/)	.	.	.	.	.	.	.	.	.	.	.	.	.	.	.	.	.
.	.	.	8B-/	.	8g/ 8B-/	.	(16a-/	.	.	.	.	.	.	.	.	.	.	.	.	.	.	.	.	.
.	.	.	.	.	.	.	16g/JJ)	.	.	.	.	.	.	.	.	.	.	.	.	.	.	.	.	.
!	!	!	!	!	!	!	!LO:LB:g=original	!	!	!	!	!	!	!	!	!	!	!	!	!	!	!	!	!
=15	=15	=15	=15	=15	=15	=15	=15	=15	=15	=15	=15	=15	=15	=15	=15	=15	=15	=15	=15	=15	=15	=15	=15	=15
4B-\	6 4	.	4B-/	.	4e-/	.	4g/	.	4BB-/	-bis	4B-\	.	4g\	.	4ee-\	.	4e-\	.	4g\	.	4ee-\	.	4gg\	.
4BB-/	5 3	.	4B-/	.	4d/	.	4f/	.	4r	.	4B-\	-bis	4f\	-bis	4dd\	-bis	4B-/	.	4f\	.	4dd\	.	4ff\	.
4r	.	.	4r	.	4r	.	4r	.	4r	.	4r	.	4r	.	4r	.	4r	.	4r	.	4r	.	4r	.
!	!	!	!	!	!	!	!	!	!	!	!	!	!	!	!	!	!	!	!LO:LB:g=original	!	!	!	!	!
=16	=16	=16	=16	=16	=16	=16	=16	=16	=16	=16	=16	=16	=16	=16	=16	=16	=16	=16	=16	=16	=16	=16	=16	=16
!LO:TX:a:rj:i:t=Solo	!	!	!	!	!	!	!	!	!	!	!LO:TX:a:rj:t=9	!	!	!	!	!	!	!	!	!	!	!	!	!
!LO:TX:b:i:t=pedale	!	!	!	!	!	!	!	!LO:DY:b:rj	!	!	!	!	!	!	!	!	!	!	!	!	!	!	!	!
4BB-/	.	.	4B-/	.	8r	p	8r	p	0.r	.	0.r	.	1.r	.	1.r	.	4BB-/	.	4B-/	.	8r	.	8r	.
.	.	.	.	.	8d/	.	8f/	.	.	.	.	.	.	.	.	.	.	.	.	.	8dd|\L	.	8ff\L	.
4r	.	.	4r	.	(8d/L	.	(8f/L	.	.	.	.	.	.	.	.	.	4r	.	4r	.	8dd|\	.	8ff\	.
.	.	.	.	.	8e-/)	.	8g/)	.	.	.	.	.	.	.	.	.	.	.	.	.	8ee-|\	.	8gg\	.
4r	.	.	4r	.	(8e-/	.	(8g/	.	.	.	.	.	.	.	.	.	4r	.	4r	.	(8ee-\	.	8gg\	.
.	.	.	.	.	8f/J)	.	8a-/J)	.	.	.	.	.	.	.	.	.	.	.	.	.	8ff\J)	.	8aa-\J	.
=17	=17	=17	=17	=17	=17	=17	=17	=17	=17	=17	=17	=17	=17	=17	=17	=17	=17	=17	=17	=17	=17	=17	=17	=17
4E-\	.	.	4e-\	.	8r	.	8r	.	.	.	.	.	.	.	.	.	4E-/	.	4e-\	.	8r	.	8r	.
.	.	.	.	.	8e-/	.	8b-|\	.	.	.	.	.	.	.	.	.	.	.	.	.	8gg|\L	.	8bb-\L	.
4r	.	.	4r	.	(8g/L	.	(8b-\L	.	.	.	.	.	.	.	.	.	4r	.	4r	.	(8gg\	.	8bb-\	.
.	.	.	.	.	8f/)	.	8a-\)	.	.	.	.	.	.	.	.	.	.	.	.	.	8ff\)	.	8aa-\	.
4r	.	.	4r	.	(8f/	.	(8g\	.	.	.	.	.	.	.	.	.	4r	.	4r	.	(8ff\	.	8aa-\	.
.	.	.	.	.	8e-/J)	.	8g\J)	.	.	.	.	.	.	.	.	.	.	.	.	.	8ee-\J)	.	8gg\J	.
!	!	!	!	!	!	!	!	!	!	!	!	!	!	!	!	!	!	!	!	!	!LO:LB:g=original	!	!LO:LB:g=original	!
=18	=18	=18	=18	=18	=18	=18	=18	=18	=18	=18	=18	=18	=18	=18	=18	=18	=18	=18	=18	=18	=18	=18	=18	=18
4A-\	.	.	4r	.	8r	.	8r	.	.	.	.	.	2.r	.	2.r	.	8r	.	8r	.	8r	.	8r	.
.	.	.	.	.	8A-/	.	8f|/	.	.	.	.	.	.	.	.	.	8f|\L	.	8a-|\L	.	8a-/	.	8ff\L	.
4B-\	.	.	2B-/	.	(8A-/L	.	(8f/L	.	.	.	.	.	.	.	.	.	(8f\	.	(8a-\	.	(8a-/L	.	8ff\	.
.	.	.	.	.	8G/)	.	8e-/)	.	.	.	.	.	.	.	.	.	8e-\	.	8g\)	.	8g/)	.	8ee-\	.
4BB-/	.	.	.	.	(8G/	.	(8e-/	.	.	.	.	.	.	.	.	.	8e-\	.	(8g\	.	(8g/	.	8ee-\	.
.	.	.	.	.	8A-/J)	.	8d/J)	.	.	.	.	.	.	.	.	.	8B-\J)	.	8f\J)	.	8f/J)	.	8dd\J	.
!LO:LB:g=original	!	!	!LO:LB:g=original	!	!	!	!	!	!	!	!	!	!	!	!	!	!	!	!	!	!	!	!	!
=19	=19	=19	=19	=19	=19	=19	=19	=19	=19	=19	=19	=19	=19	=19	=19	=19	=19	=19	=19	=19	=19	=19	=19	=19
!	!	!	!	!	!	!	!LO:TX:t=P:problem=mixed beam	!	!	!	!	!	!LO:TX:a:rj:i:t=Solo	!	!LO:TX:a:rj:i:t=Solo	!	!	!	!LO:TX:a:rj:t=7	!	!LO:TX:a:rj:t=6	!	!LO:TX:a:rj:t=6	!
4E-\	.	.	4B-/	.	(8G/L	.	8e-/L	.	.	.	.	.	2g\	ag-	2ee-\	ag-	0.r	.	0.r	.	0.r	.	0.r	.
!	!	!	!	!	!	!	!	!LO:DY:b	!	!	!	!	!	!	!	!	!	!	!	!	!	!	!	!
.	.	.	.	.	8g/)	.	8ee-\	p	.	.	.	.	.	.	.	.	.	.	.	.	.	.	.	.
4G\	6	.	4r	.	8g'/	p	8ee-\	.	.	.	.	.	.	.	.	.	.	.	.	.	.	.	.	.
.	.	.	.	.	8g'/	.	8ee-\	.	.	.	.	.	.	.	.	.	.	.	.	.	.	.	.	.
4E-\	.	.	4r	.	8g'/	.	8b-\	.	.	.	.	.	4g\	-nus	4b-\	-nus	.	.	.	.	.	.	.	.
.	.	.	.	.	8g'/J	.	8b-\J	.	.	.	.	.	.	.	.	.	.	.	.	.	.	.	.	.
!	!	!	!	!	!LO:LB:g=original	!	!	!	!	!	!	!	!	!	!LO:LB:g=original	!	!	!	!	!	!	!	!	!
=20	=20	=20	=20	=20	=20	=20	=20	=20	=20	=20	=20	=20	=20	=20	=20	=20	=20	=20	=20	=20	=20	=20	=20	=20
!	!	!	!LO:TX:a:rj:t=6	!	!	!	!	!	!	!	!	!	!	!	!	!	!	!	!	!	!	!	!	!
4BB-/	8 6	.	0.r	.	(8.g/L	.	(8.b-/L	rfz	0.r	.	0.r	.	8.g\L	De-	8.b-\L	De-	.	.	.	.	.	.	.	.
!	!	!	!	!	!LO:N:vis=8	!	!	!	!	!	!	!	!	!	!	!	!	!	!	!	!	!	!	!
.	7 5	.	.	.	16f/K)	.	16a-/K)	.	.	.	.	.	16g\Jk	.	16a-\Jk	.	.	.	.	.	.	.	.	.
4E-\	5 3	.	.	.	8e-'/	.	8g'/	.	.	.	.	.	4e-\	-i	4g\	-i	.	.	.	.	.	.	.	.
.	_ _	.	.	.	8g'/	.	8g'/	.	.	.	.	.	.	.	.	.	.	.	.	.	.	.	.	.
4E-\	.	.	.	.	8g'/	.	8b-'/	.	.	.	.	.	8r	.	8r	.	.	.	.	.	.	.	.	.
.	.	.	.	.	8g'/J	.	8b-'/J	.	.	.	.	.	8g\	qui	8b-\	qui	.	.	.	.	.	.	.	.
=21	=21	=21	=21	=21	=21	=21	=21	=21	=21	=21	=21	=21	=21	=21	=21	=21	=21	=21	=21	=21	=21	=21	=21	=21
4BB-/	8 6	.	.	.	(8.g/L	.	(8.b-/L	rfz	.	.	.	.	8.g\L	tol-	8.b-\L	tol-	.	.	.	.	.	.	.	.
!	!	!	!	!	!LO:N:vis=8	!	!	!	!	!	!	!	!	!	!	!	!	!	!	!	!	!	!	!
.	7 5	.	.	.	16f/K)	.	16a-/K)	.	.	.	.	.	16f\Jk	.	16a-\Jk	.	.	.	.	.	.	.	.	.
4E-\	5 3	.	.	.	8e-'/	.	8g'/	.	.	.	.	.	4e-\	-lis	4g\	-lis	.	.	.	.	.	.	.	.
.	_ _	.	.	.	8g'/	.	8g'/	.	.	.	.	.	.	.	.	.	.	.	.	.	.	.	.	.
4E-\	.	.	.	.	8g'/	.	8b-'/	.	.	.	.	.	8r	.	8r	.	.	.	.	.	.	.	.	.
.	.	.	.	.	8g'/J	.	8b-'/J	.	.	.	.	.	8g\	pec-	8b-\	pec-	.	.	.	.	.	.	.	.
!	!	!	!	!	!	!	!	!	!	!	!	!	!LO:LB:g=original	!	!	!	!	!	!	!	!	!	!	!
=22	=22	=22	=22	=22	=22	=22	=22	=22	=22	=22	=22	=22	=22	=22	=22	=22	=22	=22	=22	=22	=22	=22	=22	=22
4A-\	3	.	.	.	(8.a-/L	.	(8.cc\L	rfz	.	.	.	.	8a-\L	-ca-	8cc\L	-ca-	.	.	.	.	.	.	.	.
.	.	.	.	.	.	.	.	.	.	.	.	.	8b-\J	.	8dd\J	.	.	.	.	.	.	.	.	.
!	!	!	!	!	!LO:N:vis=8	!	!	!	!	!	!	!	!	!	!	!	!	!	!	!	!	!	!	!
.	.	.	.	.	16b-/K)	.	16dd\Jk)	.	.	.	.	.	.	.	.	.	.	.	.	.	.	.	.	.
4AA-/	5 3	.	.	.	8cc'/	.	8ee-'\L	.	.	.	.	.	(4.cc\	-ta	(4.ee-\	-ta	.	.	.	.	.	.	.	.
.	.	.	.	.	8cc'/	.	8ee-'\	.	.	.	.	.	.	.	.	.	.	.	.	.	.	.	.	.
4r	.	.	.	.	(8cc/	.	(8ee-\	.	.	.	.	.	.	.	.	.	.	.	.	.	.	.	.	.
.	.	.	.	.	8a-/J)	.	8cc\J)	.	.	.	.	.	8a-\)	.	8cc\)	.	.	.	.	.	.	.	.	.
=23	=23	=23	=23	=23	=23	=23	=23	=23	=23	=23	=23	=23	=23	=23	=23	=23	=23	=23	=23	=23	=23	=23	=23	=23
4BB-/	8 6	.	.	.	8.g/L	.	(8.b-\L	.	.	.	.	.	8.g\L	mun-	(8.b-\L	mun-	1.r	.	1.r	.	1.r	.	1.r	.
.	7 5	.	.	.	16f/Jk	.	16a-\Jk)	.	.	.	.	.	16f\Jk	.	16a-\Jk)	.	.	.	.	.	.	.	.	.
4E-\	3 1	.	.	.	4e-/	.	4g\	.	.	.	.	.	4e-\	-di	4g\	-di	.	.	.	.	.	.	.	.
4r	.	.	.	.	4r	.	4r	.	.	.	.	.	4r	.	4r	.	.	.	.	.	.	.	.	.
!	!	!	!	!	!	!	!LO:LB:g=original	!	!	!	!	!	!	!	!	!	!	!	!	!	!	!	!	!
=24	=24	=24	=24	=24	=24	=24	=24	=24	=24	=24	=24	=24	=24	=24	=24	=24	=24	=24	=24	=24	=24	=24	=24	=24
!	!	!	!	!	!	!	!LO:TX:a:rj:t=2	!	!	!	!	!	!LO:TX:a:rj:t=1	!	!LO:TX:a:rj:t=1.	!	!	!	!	!	!	!	!	!
4BB-/	.	.	1.r	.	1.r	.	1.r	.	8BB-/	mi-	2.r	.	2.r	.	2.r	.	.	.	.	.	.	.	.	.
.	.	.	.	.	.	.	.	.	8BB-/	-se-	.	.	.	.	.	.	.	.	.	.	.	.	.	.
4BB-/	.	.	.	.	.	.	.	.	4.B-\	-re-	.	.	.	.	.	.	.	.	.	.	.	.	.	.
4D/	6 5	.	.	.	.	.	.	.	.	.	.	.	.	.	.	.	.	.	.	.	.	.	.	.
.	.	.	.	.	.	.	.	.	8A-\	-re	.	.	.	.	.	.	.	.	.	.	.	.	.	.
!	!	!	!	!	!	!	!	!	!LO:LB:g=original	!	!LO:LB:g=original	!	!	!	!	!	!	!	!	!	!	!	!	!
=25	=25	=25	=25	=25	=25	=25	=25	=25	=25	=25	=25	=25	=25	=25	=25	=25	=25	=25	=25	=25	=25	=25	=25	=25
4E-\	.	.	.	.	.	.	.	.	8G\	mi-	8B-\	mi-	8ee-\	mi-	8gg\	mi-	2.r	.	2.r	.	4ee-\	.	4gg\	f
.	.	.	.	.	.	.	.	.	8E-\	-se-	8B-\	-se-	8ee-\	-se-	8gg\	-se-	.	.	.	.	.	.	.	.
4B-\	6 4	.	.	.	.	.	.	.	4.BB-/	-re-	4.B-\	-re-	4.ee-\	-re-	4.gg\	-re-	.	.	.	.	4.ee-\	.	4.gg\	.
4A-\	6 4	.	.	.	.	.	.	.	.	.	.	.	.	.	.	.	.	.	.	.	.	.	.	.
.	.	.	.	.	.	.	.	.	8D/	-re	8B-\	-re	8dd\	-re	8ff\	-re	.	.	.	.	8dd\	.	8gg\	.
=26	=26	=26	=26	=26	=26	=26	=26	=26	=26	=26	=26	=26	=26	=26	=26	=26	=26	=26	=26	=26	=26	=26	=26	=26
4G\	6	.	4B-/	.	4G/	.	4e-|/	.	2.B-\	no-	4G/	no-	(2.b-\	no-	4ee-\	no-	4G/	.	4e-\	.	4b-\	.	4ee-\	.
4A-\	6	.	4B-/	.	4d/	.	(4f/	.	.	.	4B-\	.	.	.	4ff\	.	4B-/	.	4f\	.	4dd\	.	4ff\	.
4An\	7	.	4B-/	.	4f/	.	4a-/)	.	.	.	4f\	.	.	.	4aa-\	.	4f\	.	4a-\	.	4ff\	.	4aa-\	.
!	!	!	!	!	!	!	!	!	!	!	!	!	!	!	!	!	!LO:LB:g=original	!	!	!	!	!	!	!
=27	=27	=27	=27	=27	=27	=27	=27	=27	=27	=27	=27	=27	=27	=27	=27	=27	=27	=27	=27	=27	=27	=27	=27	=27
4B-\	6 4	.	4B-/	.	4e-/	.	4g/	.	4B-\	.	4B-\	.	4ee-\)	.	4gg\	.	4e-\	.	4g\	.	4ee-\	.	4gg\	.
4BB-/	5 3	.	4B-/	.	4d/	.	4f/	.	4BB-/	-bis	4B-\	-bis	4dd\	-bis	4ff\	-bis	4B-/	.	4f\	.	4dd\	.	4ff\	.
4r	.	.	4r	.	4r	.	4r	.	4r	.	4r	.	4r	.	4r	.	4r	.	4r	.	4r	.	4r	.
!LO:LB:g=original	!	!	!	!	!	!	!	!	!	!	!	!	!	!	!LO:LB:g=original	!	!	!	!	!	!	!	!	!
=28	=28	=28	=28	=28	=28	=28	=28	=28	=28	=28	=28	=28	=28	=28	=28	=28	=28	=28	=28	=28	=28	=28	=28	=28
*	*	*	*	*	*tremolo	*	*Xtuplet	*	*	*	*2\right	*	*	*	*	*	*	*	*	*	*	*	*	*
!LO:TX::a:rj:i:t=Tutti	!	!	!	!LO:DY:rj	!LO:N:vis=4.	!LO:DY:rj	!	!LO:DY:rj	!	!	!	!	!	!	!	!	!	!	!	!	!	!	!	!
4G\	5 n	f	12g\L	f	12d/L	ff	12G/L	f	2G\	mi-	2g\	mi-	2d\	mi-	2bn\	mi-	2.G/	.	2.g\	.	2.bX\	f	2.dd\	.
.	.	.	12g\	.	12d/	.	12bn/	.	.	.	.	.	.	.	.	.	.	.	.	.	.	.	.	.
.	.	.	12g\J	.	12d/J	.	12b/J	.	.	.	.	.	.	.	.	.	.	.	.	.	.	.	.	.
*	*	*	*	*	*	*	*tremolo	*	*	*	*	*	*	*	*	*	*	*	*	*	*	*	*	*
!	!	!	!	!	!LO:N:vis=4.	!	!	!	!	!	!	!	!	!	!	!	!	!	!	!	!	!	!	!
4G\	.	.	12g\L	.	12d/L	.	8b/L	.	.	.	.	.	.	.	.	.	.	.	.	.	.	.	.	.
.	.	.	12g\	.	12d/	.	.	.	.	.	.	.	.	.	.	.	.	.	.	.	.	.	.	.
.	.	.	.	.	.	.	8b/J	.	.	.	.	.	.	.	.	.	.	.	.	.	.	.	.	.
.	.	.	12g\J	.	12d/J	.	.	.	.	.	.	.	.	.	.	.	.	.	.	.	.	.	.	.
*	*	*	*	*	*	*	*Xtremolo	*	*	*	*	*	*	*	*	*	*	*	*	*	*	*	*	*
!	!	!	!	!	!LO:N:vis=4.	!	!	!	!	!	!	!	!	!	!	!	!	!	!	!	!	!	!	!
4G\	.	.	12g\L	.	12d/L	.	12b/L	.	4G\	-se-	4g\	-se-	4d\	-se-	4b\	-se-	.	.	.	.	.	.	.	.
.	.	.	12g\	.	12d/	.	12g/	.	.	.	.	.	.	.	.	.	.	.	.	.	.	.	.	.
.	.	.	12g\J	.	12d/J	.	12b/J	.	.	.	.	.	.	.	.	.	.	.	.	.	.	.	.	.
!	!	!	!	!	!LO:LB:g=original	!	!	!	!	!	!	!	!LO:LB:g=original	!	!	!	!	!	!	!	!	!	!	!
=29	=29	=29	=29	=29	=29	=29	=29	=29	=29	=29	=29	=29	=29	=29	=29	=29	=29	=29	=29	=29	=29	=29	=29	=29
!	!	!	!	!	!LO:N:vis=4.	!	!	!	!	!	!	!	!	!	!	!	!	!	!	!	!	!	!	!
4C/	.	.	12g\L	.	12e-/L	.	12cc/L	.	2c\	-re-	2g\	-re-	2e-\	-re-	2cc\	-re-	2.G/	.	2.e-\	.	2.cc\	.	2.ee-\	.
.	.	.	12g\	.	12e-/	.	12cc/	.	.	.	.	.	.	.	.	.	.	.	.	.	.	.	.	.
.	.	.	12g\J	.	12e-/J	.	12cc/J	.	.	.	.	.	.	.	.	.	.	.	.	.	.	.	.	.
!	!	!	!	!	!LO:N:vis=4.	!	!	!	!	!	!	!	!	!	!	!	!	!	!	!	!	!	!	!
4C/	.	.	12g\L	.	12e-/L	.	(12cc/L	.	.	.	.	.	.	.	.	.	.	.	.	.	.	.	.	.
.	.	.	12g\	.	12e-/	.	12g/)	.	.	.	.	.	.	.	.	.	.	.	.	.	.	.	.	.
.	.	.	12g\J	.	12e-/J	.	12g|/J	.	.	.	.	.	.	.	.	.	.	.	.	.	.	.	.	.
!	!	!	!	!	!LO:N:vis=4.	!	!	!	!	!	!	!	!	!	!	!	!	!	!	!	!	!	!	!
4C/	.	.	12g\L	.	12e-/L	.	(12g/L	.	4C/	-re	4g\	-re	4e-\	-re	4cc\	-re	.	.	.	.	.	.	.	.
.	.	.	12g\	.	12e-/	.	12e-/)	.	.	.	.	.	.	.	.	.	.	.	.	.	.	.	.	.
.	.	.	12g\J	.	12e-/J	.	12e-|/J	.	.	.	.	.	.	.	.	.	.	.	.	.	.	.	.	.
*	*	*	*	*	*Xtremolo	*	*	*	*	*	*	*	*	*	*	*	*	*	*	*	*	*	*	*
=30	=30	=30	=30	=30	=30	=30	=30	=30	=30	=30	=30	=30	=30	=30	=30	=30	=30	=30	=30	=30	=30	=30	=30	=30
*	*	*	*tremolo	*	*Xtuplet	*	*	*	*	*	*	*	*	*	*	*	*	*	*	*	*	*	*	*
!	!	!	!LO:N:vis=4.	!	!	!	!LO:TX:t=P:problem=mixed beam	!	!	!	!	!	!	!	!	!	!	!	!	!	!	!	!	!
4C/	8 3	.	12c\L	.	12e-/L	.	12c/L	.	4C/	no-	2.c\	no-	2.e-\	no-	2ee-\	no-	2.E-/	.	4e-\	.	4cc\	.	4ee-\	.
.	.	.	12c\	.	12e-/	.	12cc\	.	.	.	.	.	.	.	.	.	.	.	.	.	.	.	.	.
!	!	!	!	!	!LO:N:vis=4.	!	!	!	!	!	!	!	!	!	!	!	!	!	!	!	!	!	!	!
*	*	*	*	*	*tremolo	*	*	*	*	*	*	*	*	*	*	*	*	*	*	*	*	*	*	*
.	.	.	12c\J	.	12e-/J	.	12cc\J	.	.	.	.	.	.	.	.	.	.	.	.	.	.	.	.	.
!	!	!	!LO:N:vis=4.	!	!	!	!	!	!	!	!	!	!	!	!	!	!	!	!	!	!	!	!	!
4E-/	_ _	.	12e-\L	.	12e-/L	.	12cc|\L	.	4E-\	.	.	.	.	.	.	.	.	.	2e-\	.	4cc\	.	4ee-\	.
.	.	.	12e-\	.	12e-/	.	12cc|\	.	.	.	.	.	.	.	.	.	.	.	.	.	.	.	.	.
.	.	.	12e-\J	.	12e-/J	.	12cc|\J	.	.	.	.	.	.	.	.	.	.	.	.	.	.	.	.	.
*	*	*	*	*	*Xtremolo	*	*	*	*	*	*	*	*	*	*	*	*	*	*	*	*	*	*	*
!	!	!	!LO:N:vis=4.	!	!	!	!	!	!	!	!	!	!	!	!	!	!	!	!	!	!	!	!	!
4F#X\	x	.	12f#X\L	.	12e-/L	.	12ee-\L	.	4F#X\	.	.	.	.	.	8dd\L	.	.	.	.	.	4cc\	.	4ee-\	.
.	.	.	12f#X\	.	12e-/	.	12dd\	.	.	.	.	.	.	.	.	.	.	.	.	.	.	.	.	.
.	.	.	.	.	.	.	.	.	.	.	.	.	.	.	8cc\J	.	.	.	.	.	.	.	.	.
.	.	.	12f#X\J	.	12e-/J	.	12cc\J	.	.	.	.	.	.	.	.	.	.	.	.	.	.	.	.	.
*	*	*	*Xtremolo	*	*	*	*	*	*	*	*	*	*	*	*	*	*	*	*	*	*	*	*	*
!	!	!	!LO:LB:g=original	!	!	!	!	!	!	!	!	!	!	!	!	!	!	!	!LO:LB:g=original	!	!LO:LB:g=original	!	!LO:LB:g=original	!
=31	=31	=31	=31	=31	=31	=31	=31	=31	=31	=31	=31	=31	=31	=31	=31	=31	=31	=31	=31	=31	=31	=31	=31	=31
.	.	.	.	.	.	.	8qqcc/	.	.	.	.	.	.	.	.	.	.	.	.	.	.	.	.	.
4G\	5 n	.	4g\	.	4d/	.	4bn/	.	4G\	-bis	4d\	-bis	4d\	-bis	4bn\	-bis	4G/	.	4g\	.	4bX\	.	4dd\	.
4r	.	.	4G/	.	12e-|/L	.	12g|/L	.	4r	.	4r	.	4r	.	4r	.	4r	.	4r	.	4r	.	4r	.
.	.	.	.	.	(12e-/	.	(12g/	.	.	.	.	.	.	.	.	.	.	.	.	.	.	.	.	.
.	.	.	.	.	12d/J)	.	12f/J)	.	.	.	.	.	.	.	.	.	.	.	.	.	.	.	.	.
4r	.	.	4r	.	12c|/L	.	12e-|/L	.	4r	.	4r	.	4r	.	4r	.	4r	.	4r	.	4r	.	4r	.
.	.	.	.	.	(12c/	.	(12e-/	.	.	.	.	.	.	.	.	.	.	.	.	.	.	.	.	.
.	.	.	.	.	12Bn/J)	.	12d/J)	.	.	.	.	.	.	.	.	.	.	.	.	.	.	.	.	.
!	!	!	!	!	!	!	!	!	!LO:LB:g=original	!	!	!	!	!	!	!	!	!	!	!	!	!	!	!
=32	=32	=32	=32	=32	=32	=32	=32	=32	=32	=32	=32	=32	=32	=32	=32	=32	=32	=32	=32	=32	=32	=32	=32	=32
*	*	*	*2\right	*	*	*	*	*	*	*	*	*	*	*	*	*	*	*	*	*	*	*	*	*
!LO:TX::a:rj:i:t=Solo	!	!LO:DY:b	!	!LO:DY:rj	!	!	!	!	!	!	!	!	!	!	!	!	!LO:TX:a:rj:t=8	!	!	!	!LO:TX:a:rj:t=2	!	!LO:TX:a:rj:t=2	!
2c|\	.	p	2cc\	f	4c/	.	4c/	.	2c\	Ag-	2c\	Ag-	2c\	Ag-	2cc\	Ag-	0.r	.	0.r	.	1.r	.	1.r	.
.	.	.	.	.	4r	.	4r	.	.	.	.	.	.	.	.	.	.	.	.	.	.	.	.	.
4G|\	.	.	4g\	.	4r	.	4r	.	4G\	-nus	4g\	-nus	4g\	-nus	4gg\	-nus	.	.	.	.	.	.	.	.
!	!	!	!	!	!	!	!	!	!	!	!LO:LB:g=original	!	!	!	!	!	!	!	!	!	!	!	!	!
=33	=33	=33	=33	=33	=33	=33	=33	=33	=33	=33	=33	=33	=33	=33	=33	=33	=33	=33	=33	=33	=33	=33	=33	=33
!	!	!	!	!	!	!	!LO:TX:a:rj:t=1	!	!	!	!	!	!	!	!	!	!	!	!	!	!	!	!	!
4E-|\	.	.	4e-\	.	2.r	.	2.r	.	8.G\L	De-	8.g\L	De-	8.g\L	De-	8.gg\L	De-	.	.	.	.	.	.	.	.
.	.	.	.	.	.	.	.	.	16E-\Jk	.	16e-\Jk	.	16e-\Jk	.	16ee-\Jk	.	.	.	.	.	.	.	.	.
4C|\	.	.	4c\	.	.	.	.	.	4C/	-i	4c\	-i	4c\	-i	4cc\	-i	.	.	.	.	.	.	.	.
4C\	.	.	4c\	.	.	.	.	.	8r	.	8r	.	8r	.	8r	.	.	.	.	.	.	.	.	.
.	.	.	.	.	.	.	.	.	8G\	qui	8g\	qui	8c\	qui	8cc\	qui	.	.	.	.	.	.	.	.
!	!	!	!	!	!	!	!LO:LB:g=original	!	!	!	!	!	!	!	!	!	!	!	!	!	!	!	!	!
=34	=34	=34	=34	=34	=34	=34	=34	=34	=34	=34	=34	=34	=34	=34	=34	=34	=34	=34	=34	=34	=34	=34	=34	=34
*	*	*	*	*	*	*	*2\right	*	*	*	*	*	*	*	*	*	*	*	*	*	*	*	*	*
*	*	*	*tremolo	*	*tremolo	*	*tremolo	*	*	*	*	*	*	*	*	*	*	*	*	*	*	*	*	*
!	!	!	!LO:TX:t=P:problem=mixed beam	!	!	!	!	!	!	!	!	!	!	!	!	!	!	!	!	!	!	!	!	!
4G\	n	.	8G/L	.	8d/L	.	8bn'\L	.	4G\	tol-	4g\	tol-	4d\	tol-	4bn\	tol-	.	.	.	.	4g/	.	4bX\	.
.	.	.	8g\J	.	8d/	.	8bn'\	.	.	.	.	.	.	.	.	.	.	.	.	.	.	.	.	.
4GG/	.	.	8g\L	p	8d/	.	8bn'\	.	4G\	-lis	4g\	-lis	4d\	-lis	4b\	-lis	.	.	.	.	4g/	.	4b\	.
.	.	.	8g\	.	8d/	.	8bn'\	.	.	.	.	.	.	.	.	.	.	.	.	.	.	.	.	.
4GG/	.	.	8g\	.	8d/	.	8bn'\	.	8r	.	8r	.	8r	.	8r	.	.	.	.	.	4r	.	4r	.
.	.	.	8g\J	.	8d/J	.	8bn'\J	.	8G\	pec-	8g\	pec-	8d\	pec-	8bn\	pec-	.	.	.	.	.	.	.	.
!	!	!	!	!	!	!	!	!	!	!	!	!	!LO:LB:g=original	!	!	!	!	!	!	!	!	!	!	!
=35	=35	=35	=35	=35	=35	=35	=35	=35	=35	=35	=35	=35	=35	=35	=35	=35	=35	=35	=35	=35	=35	=35	=35	=35
4G\	6 4	.	8g\L	.	8e-/L	.	8cc\L	.	4G\	-ca-	4g\	-ca-	4e-\	-ca-	4cc\	-ca-	.	.	.	.	4g/	.	4cc\	.
.	_ _	.	8g\	.	8e-/	.	8cc\	.	.	.	.	.	.	.	.	.	.	.	.	.	.	.	.	.
4GG/	.	.	8g\	.	8e-/	.	8cc\	.	4G\	-ta	4g\	-ta	4e-\	-ta	4cc\	-ta	.	.	.	.	4g/	.	4cc\	.
.	.	.	8g\	.	8e-/	.	8cc\	.	.	.	.	.	.	.	.	.	.	.	.	.	.	.	.	.
4GG/	x	.	8g\	.	8e-/	.	8cc\	.	8r	.	8r	.	8r	.	8r	.	.	.	.	.	4r	.	4r	.
.	.	.	8g\J	.	8e-/J	.	8cc\J	.	8G\	pec-	8g\	pec-	8e-\	pec-	8cc\	pec-	.	.	.	.	.	.	.	.
*	*	*	*Xtremolo	*	*Xtremolo	*	*Xtremolo	*	*	*	*	*	*	*	*	*	*	*	*	*	*	*	*	*
=36	=36	=36	=36	=36	=36	=36	=36	=36	=36	=36	=36	=36	=36	=36	=36	=36	=36	=36	=36	=36	=36	=36	=36	=36
!	!	!	!	!	!	!	!	!	!	!	!	!	!	!	!	!	!	!	!	!	!LO:TX:a:rj:t=1	!	!	!
4BBn/	7	.	4f\	.	8ff|\L	.	8aa-|\L	.	4D/	-ca-	4f\	-ca-	4d\	-ca-	(4aa-\	-ca-	0.r	.	0.r	.	2.r	.	2.r	.
.	.	.	.	.	8ff|\	.	8aa-|\	.	.	.	.	.	.	.	.	.	.	.	.	.	.	.	.	.
4C/	5	.	4g\	.	8ee-|\	.	8gg|\	.	4C/	.	4e-\	.	4c/	.	4gg\)	.	.	.	.	.	.	.	.	.
.	.	.	.	.	8ee-|\	.	8gg|\	.	.	.	.	.	.	.	.	.	.	.	.	.	.	.	.	.
4G\	7 n	.	4Bn/	.	8dd|\	.	8ff|\	.	4Bn\	-ta	4d\	-ta	4Bn/	-ta	4ff\	-ta	.	.	.	.	.	.	.	.
.	.	.	.	.	8dd|\J	.	8ff|\J	.	.	.	.	.	.	.	.	.	.	.	.	.	.	.	.	.
!LO:LB:g=original	!	!	!	!	!	!	!	!	!	!	!	!	!	!	!	!	!	!	!	!	!	!	!	!
=37	=37	=37	=37	=37	=37	=37	=37	=37	=37	=37	=37	=37	=37	=37	=37	=37	=37	=37	=37	=37	=37	=37	=37	=37
4C/	3	.	4c/	.	8g/L	.	8ee-\L	.	4c\	mun-	4c\	mun-	4c/	mun-	4ee-\	mun-	.	.	.	.	4r	.	4r	.
.	.	.	.	.	8g/J	.	8ee-\	.	.	.	.	.	.	.	.	.	.	.	.	.	.	.	.	.
*	*	*	*	*	*tremolo	*	*	*	*	*	*	*	*	*	*	*	*	*	*	*	*	*	*	*
4CC/	.	.	4C/	.	8e-/L	.	8cc\	.	4C/	-di	4e-\	-di	4c/	-di	4cc\	-di	.	.	.	.	4r	.	4r	.
.	.	.	.	.	8e-/	.	8cc\	.	.	.	.	.	.	.	.	.	.	.	.	.	.	.	.	.
4r	.	.	4r	.	8e-/	.	8cc\	.	4r	.	4r	.	4r	.	4r	.	.	.	.	.	8r	.	8r	.
!	!	!	!	!	!LO:TX:a:t=vi	!	!	!	!	!	!	!	!	!	!	!	!	!	!	!	!	!	!	!
.	.	.	.	.	8e-/J	.	8g\J	.	.	.	.	.	.	.	.	.	.	.	.	.	8ee-\	.	8gg\	.
*	*	*	*	*	*Xtremolo	*	*	*	*	*	*	*	*	*	*	*	*	*	*	*	*	*	*	*
!	!	!	!	!	!LO:PB:g=original	!	!	!	!	!	!	!	!	!	!	!	!	!	!	!	!	!	!	!
=38	=38	=38	=38	=38	=38	=38	=38	=38	=38	=38	=38	=38	=38	=38	=38	=38	=38	=38	=38	=38	=38	=38	=38	=38
!LO:TX:a:rj:i:t=pedale	!	!	!	!	!LO:TX:a:t=de	!	!	!LO:DY:a:rj	!	!	!	!	!	!	!LO:TX:a:rj:t=2	!	!	!	!	!	!	!	!	!
2.GG/	.	.	2.G/	.	8e-/L	.	(8g/L	p	1.r	.	1.r	.	1.r	.	1.r	.	.	.	.	.	(8ee-\L	.	8gg\L	.
.	.	.	.	.	8d/	.	8f/)	.	.	.	.	.	.	.	.	.	.	.	.	.	8ee-\	.	8ff\	.
.	.	.	.	.	8d/	.	(8f/	.	.	.	.	.	.	.	.	.	.	.	.	.	8dd\	.	8ff\	.
.	.	.	.	.	8c/	.	8e-/)	.	.	.	.	.	.	.	.	.	.	.	.	.	8cc\	.	8ee-\	.
.	.	.	.	.	8c/	.	(8e-/	.	.	.	.	.	.	.	.	.	.	.	.	.	8cc\	.	8ee-\	.
.	.	.	.	.	8Bn/J	.	8d/J)	.	.	.	.	.	.	.	.	.	.	.	.	.	8bX\J)	.	8dd\J	.
=39	=39	=39	=39	=39	=39	=39	=39	=39	=39	=39	=39	=39	=39	=39	=39	=39	=39	=39	=39	=39	=39	=39	=39	=39
4C/	.	.	4c/	.	4G/	.	4c/	.	.	.	.	.	.	.	.	.	.	.	.	.	4cc\	.	4ee-\	.
4C/	.	.	4C/	.	4G/	.	4c/	.	.	.	.	.	.	.	.	.	.	.	.	.	4cc\	.	4ee-\	.
4r	.	.	4r	.	4r	.	4r	.	.	.	.	.	.	.	.	.	.	.	.	.	4r	.	4r	.
==	==	==	==	==	==	==	==	==	==	==	==	==	==	==	==	==	==	==	==	==	==	==	==	==
*-	*-	*-	*-	*-	*-	*-	*-	*-	*-	*-	*-	*-	*-	*-	*-	*-	*-	*-	*-	*-	*-	*-	*-	*-
!!!system-decoration: [(s1,s2)],[(s3,s4)],[(s5,s6,s7,s8)],[(s9,s10,s11)],s12
!!!RDF**dynam: p = p.
!!!RDF**dynam: f = f.
!!!RDF**dynam: rfz = rf.
!!!RDF**kern: | = vertical stroke
!!!ENC: Tomasz Grochalski
!!!END: 2020-07-22
!!!ENC: Leszek Kubiak
!!!END: 2022-02-05
!!!YEC: Copyright 2022 Narodowy Instytut Fryderyka Chopina (https://polishscores.org)
!!!YEM: Licence CC BY 4.0 (https://creativecommons.org/licenses/by/4.0)
